icons/preact-dark.svg

<svg width="256" height="256" viewBox="0 0 256 256" fill="none" xmlns="http://www.w3.org/2000/svg">
<path d="M196 0H60C26.8629 0 0 26.8629 0 60V196C0 229.137 26.8629 256 60 256H196C229.137 256 256 229.137 256 196V60C256 26.8629 229.137 0 196 0Z" fill="#282828"/>
<g clip-path="url(#clip0_120_2351)">
<path d="M127.5 27.0078L215 77.4358V178.292L127.5 228.72L40 178.292V77.4358L127.5 27.0078Z" fill="#673AB8"/>
<path d="M63.8334 177.458C75.4654 192.32 112.433 180.996 147.334 153.776C182.235 126.558 202.186 93.4915 190.554 78.6286C178.921 63.7663 141.954 75.0911 107.053 102.31C72.152 129.53 52.2014 162.596 63.8334 177.458ZM68.8031 173.582C64.9449 168.654 66.6307 158.978 73.98 146.796C81.7196 133.97 94.8576 119.81 110.935 107.271C127.013 94.7321 143.955 85.4319 158.295 81.0387C171.914 76.8673 181.727 77.5756 185.584 82.5045C189.442 87.4333 187.757 97.1095 180.407 109.291C172.668 122.117 159.53 136.277 143.452 148.816C127.374 161.355 110.432 170.655 96.0922 175.048C82.4736 179.22 72.6606 178.511 68.8031 173.582Z" fill="white"/>
<path d="M190.554 177.458C202.187 162.596 182.235 129.529 147.334 102.31C112.434 75.0911 75.4648 63.7663 63.8334 78.6286C52.2007 93.4908 72.1521 126.558 107.053 153.776C141.954 180.996 178.921 192.321 190.554 177.458ZM185.584 173.582C181.727 178.511 171.914 179.22 158.295 175.048C143.955 170.655 127.013 161.355 110.936 148.816C94.8576 136.277 81.719 122.117 73.9807 109.291C66.6307 97.1095 64.9449 87.434 68.8025 82.5045C72.6607 77.5756 82.4736 76.8673 96.0915 81.0387C110.432 85.4319 127.374 94.7321 143.452 107.271C159.53 119.81 172.668 133.97 180.407 146.796C187.757 158.977 189.442 168.652 185.584 173.582Z" fill="white"/>
<path d="M127.194 141.421C134.595 141.421 140.594 135.431 140.594 128.043C140.594 120.656 134.595 114.667 127.194 114.667C119.792 114.667 113.792 120.656 113.792 128.043C113.792 135.431 119.792 141.421 127.194 141.421Z" fill="white"/>
</g>
<defs>
<clipPath id="clip0_120_2351">
<rect width="175" height="202" fill="white" transform="translate(40 27)"/>
</clipPath>
</defs>
</svg>

<svg xmlns="http://www.w3.org/2000/svg" width="256" height="256" fill="none"><path fill="#282828" d="M196 0H60C26.863 0 0 26.863 0 60v136c0 33.137 26.863 60 60 60h136c33.137 0 60-26.863 60-60V60c0-33.137-26.863-60-60-60"/><g clip-path="url(#clip0_120_2351)"><path fill="#673AB8" d="M127.5 27.008 215 77.436v100.856l-87.5 50.428L40 178.292V77.436z"/><path fill="#fff" d="M63.833 177.458c11.632 14.862 48.6 3.538 83.501-23.682 34.901-27.218 54.852-60.285 43.22-75.147-11.633-14.863-48.6-3.538-83.501 23.681s-54.852 60.286-43.22 75.148m4.97-3.876c-3.858-4.928-2.172-14.604 5.177-26.786 7.74-12.826 20.878-26.986 36.955-39.525 16.078-12.539 33.02-21.84 47.36-26.232 13.619-4.172 23.432-3.463 27.289 1.465 3.858 4.93 2.173 14.605-5.177 26.787-7.739 12.826-20.877 26.986-36.955 39.525s-33.02 21.839-47.36 26.232c-13.618 4.172-23.431 3.463-27.289-1.466"/><path fill="#fff" d="M190.554 177.458c11.633-14.862-8.319-47.929-43.22-75.148s-71.87-38.544-83.5-23.681c-11.633 14.862 8.318 47.929 43.219 75.147 34.901 27.22 71.868 38.545 83.501 23.682m-4.97-3.876c-3.857 4.929-13.67 5.638-27.289 1.466-14.34-4.393-31.282-13.693-47.359-26.232s-29.217-26.699-36.955-39.525c-7.35-12.181-9.036-21.857-5.178-26.787 3.858-4.928 13.67-5.637 27.289-1.465 14.34 4.393 31.282 13.693 47.36 26.232s29.216 26.699 36.955 39.525c7.35 12.181 9.035 21.856 5.177 26.786"/><path fill="#fff" d="M127.194 141.421c7.401 0 13.4-5.99 13.4-13.378 0-7.387-5.999-13.376-13.4-13.376s-13.402 5.989-13.402 13.376c0 7.388 6 13.378 13.402 13.378"/></g><defs><clipPath id="clip0_120_2351"><path fill="#fff" d="M40 27h175v202H40z"/></clipPath></defs></svg>
